; generated by PrusaSlicer 2.3.3+arm64 on 2021-12-08 at 15:03:47 UTC

; 

; external perimeters extrusion width = 0.60mm
; perimeters extrusion width = 0.50mm
; infill extrusion width = 0.50mm
; solid infill extrusion width = 0.50mm
; top infill extrusion width = 0.45mm
; first layer extrusion width = 0.42mm

M73 P0 R385
M73 Q0 S390
M201 X1000 Y1000 Z200 E5000 ; sets maximum accelerations, mm/sec^2
M203 X200 Y200 Z12 E120 ; sets maximum feedrates, mm/sec
M204 P1250 R1250 T1250 ; sets acceleration (P, T) and retract acceleration (R), mm/sec^2
M205 X8.00 Y8.00 Z0.40 E4.50 ; sets the jerk limits, mm/sec
M205 S0 T0 ; sets the minimum extruding and travel feed rate, mm/sec
M107
;TYPE:Custom
M862.3 P "MK3SMMU2S" ; printer model check
M862.1 P0.4 ; nozzle diameter check
M115 U3.10.0 ; tell printer latest fw version
G90 ; use absolute coordinates
M83 ; extruder relative mode
M104 S215 ; set extruder temp
M140 S60 ; set bed temp
Tx
M190 S60 ; wait for bed temp
M109 S215 ; wait for extruder temp
G28 W ; home all without mesh bed level
G80 ; mesh bed leveling

;go outside print area
G1 Y-3.0 F1000.0
G1 Z0.4 F1000.0
; select extruder
Tc
; purge line
G1 X55.0 F2000.0
G1 Z0.3 F1000.0
G92 E0.0
G1 X240.0 E25.0 F2200.0
M73 P0 R384
G1 Y-2.0 F1000.0
G1 X55.0 E25 F1400.0
G1 Z0.20 F1000.0
G1 X5.0 E4.0 F1000.0

M221 S95
G92 E0.0

; Don't change E values below. Excessive value can damage the printer.

M907 E538 ; set extruder motor current
G21 ; set units to millimeters
G90 ; use absolute coordinates
M83 ; use relative distances for extrusion
M900 K0.05 ; Filament gcode LA 1.5
M900 K30 ; Filament gcode LA 1.0
;LAYER_CHANGE
;Z:0.2
;HEIGHT:0.2
;BEFORE_LAYER_CHANGE
G92 E0.0
;0.2


G1 E-0.80000 F2100.000
G1 Z0.400 F10800.000
;AFTER_LAYER_CHANGE
;0.2
G1 X27.096 Y30.476
G1 Z0.200
G1 E0.80000 F2100.000
M204 S1000
;TYPE:Skirt
;WIDTH:0.42
G1 F1200.000
G1 X28.817 Y29.278 E0.06574
G1 X30.769 Y28.369 E0.06753
G1 X32.849 Y27.811 E0.06753
G1 X34.964 Y27.623 E0.06657
G1 X215.004 Y27.623 E5.64502
G1 X217.151 Y27.811 E0.06759
G1 X219.253 Y28.377 E0.06824
G1 X221.210 Y29.294 E0.06776
G1 X223.101 Y30.651 E0.07298
G1 X224.608 Y32.209 E0.06795
G1 X225.720 Y33.813 E0.06122
G1 X226.554 Y35.582 E0.06132
G1 X227.183 Y37.819 E0.07286
G1 X227.374 Y39.876 E0.06478
G1 X227.376 Y170.076 E4.08232
G1 X227.147 Y172.341 E0.07137
G1 X226.630 Y174.235 E0.06156
G1 X225.808 Y176.018 E0.06156
G1 X224.492 Y177.943 E0.07310
G1 X222.904 Y179.524 E0.07026
G1 X221.183 Y180.722 E0.06574
G1 X219.231 Y181.631 E0.06753
G1 X217.151 Y182.189 E0.06753
G1 X215.036 Y182.377 E0.06657
G1 X34.981 Y182.377 E5.64550
M73 Q0 S389
G1 X32.663 Y182.148 E0.07304
G1 X30.768 Y181.631 E0.06156
G1 X28.988 Y180.811 E0.06144
G1 X27.057 Y179.492 E0.07333
G1 X25.476 Y177.904 E0.07026
G1 X24.278 Y176.183 E0.06574
G1 X23.369 Y174.231 E0.06753
G1 X22.812 Y172.155 E0.06741
G1 X22.623 Y170.047 E0.06634
G1 X22.623 Y39.973 E4.07838
G1 X22.852 Y37.663 E0.07280
G1 X23.369 Y35.768 E0.06156
G1 X24.189 Y33.988 E0.06144
G1 X25.508 Y32.057 E0.07333
G1 X27.053 Y30.519 E0.06838
; printing object box00.stl id:0 copy 0
;WIPE_START
G1 F8640.000
G1 X28.817 Y29.278 E-0.49778
G1 X29.846 Y28.799 E-0.26222
;WIPE_END
G1 E-0.04000 F2100.000
G1 Z0.600 F10800.000
G1 X29.080 Y32.945
G1 Z0.200
G1 E0.80000 F2100.000
;TYPE:Perimeter
G1 F1200.000
G1 X30.395 Y32.024 E0.05034
G1 X31.850 Y31.346 E0.05034
G1 X33.401 Y30.930 E0.05034
G1 X35.034 Y30.787 E0.05142
G1 X214.966 Y30.787 E5.64162
G1 X216.599 Y30.930 E0.05142
G1 X218.150 Y31.346 E0.05034
G1 X219.605 Y32.024 E0.05034
G1 X220.920 Y32.945 E0.05034
G1 X222.055 Y34.080 E0.05034
G1 X222.976 Y35.395 E0.05034
M73 P0 R383
G1 X223.654 Y36.850 E0.05034
G1 X224.070 Y38.401 E0.05034
G1 X224.213 Y40.034 E0.05142
G1 X224.213 Y169.966 E4.07390
G1 X224.070 Y171.599 E0.05142
G1 X223.654 Y173.150 E0.05034
G1 X222.976 Y174.605 E0.05034
G1 X222.055 Y175.920 E0.05034
G1 X220.920 Y177.055 E0.05034
G1 X219.605 Y177.976 E0.05034
G1 X218.150 Y178.654 E0.05034
G1 X216.599 Y179.070 E0.05034
G1 X214.966 Y179.213 E0.05142
G1 X35.034 Y179.213 E5.64162
G1 X33.401 Y179.070 E0.05142
G1 X31.850 Y178.654 E0.05034
G1 X30.395 Y177.976 E0.05034
G1 X29.080 Y177.055 E0.05034
G1 X27.945 Y175.920 E0.05034
G1 X27.024 Y174.605 E0.05034
G1 X26.346 Y173.150 E0.05034
G1 X25.930 Y171.599 E0.05034
G1 X25.787 Y169.966 E0.05142
G1 X25.787 Y40.034 E4.07390
G1 X25.930 Y38.401 E0.05142
G1 X26.346 Y36.850 E0.05034
G1 X27.024 Y35.395 E0.05034
G1 X27.945 Y34.080 E0.05034
G1 X29.038 Y32.987 E0.04845
G1 X28.771 Y32.721 F10800.000
;TYPE:External perimeter
G1 F1200.000
G1 X28.837 Y32.655 E0.00292
G1 X30.206 Y31.696 E0.05240
G1 X31.721 Y30.990 E0.05240
G1 X33.335 Y30.557 E0.05240
G1 X35.018 Y30.410 E0.05297
G1 X214.982 Y30.410 E5.64265
G1 X216.665 Y30.557 E0.05297
G1 X218.279 Y30.990 E0.05240
G1 X219.794 Y31.696 E0.05240
G1 X221.163 Y32.655 E0.05240
G1 X222.345 Y33.837 E0.05240
G1 X223.304 Y35.206 E0.05240
G1 X224.010 Y36.721 E0.05240
G1 X224.443 Y38.335 E0.05240
G1 X224.590 Y40.018 E0.05297
G1 X224.590 Y169.982 E4.07494
M73 Q0 S388
G1 X224.443 Y171.665 E0.05297
G1 X224.010 Y173.279 E0.05240
G1 X223.304 Y174.794 E0.05240
G1 X222.345 Y176.163 E0.05240
G1 X221.163 Y177.345 E0.05241
G1 X219.794 Y178.304 E0.05240
G1 X218.279 Y179.010 E0.05240
G1 X216.665 Y179.443 E0.05240
G1 X214.982 Y179.590 E0.05297
G1 X35.018 Y179.590 E5.64265
G1 X33.335 Y179.443 E0.05297
G1 X31.721 Y179.010 E0.05240
G1 X30.206 Y178.304 E0.05240
G1 X28.837 Y177.345 E0.05240
G1 X27.655 Y176.163 E0.05241
G1 X26.696 Y174.794 E0.05240
G1 X25.990 Y173.279 E0.05240
G1 X25.557 Y171.665 E0.05240
G1 X25.410 Y169.982 E0.05297
G1 X25.410 Y40.018 E4.07494
G1 X25.557 Y38.335 E0.05297
G1 X25.990 Y36.721 E0.05240
G1 X26.696 Y35.206 E0.05240
G1 X27.655 Y33.837 E0.05240
G1 X28.728 Y32.763 E0.04761
G1 X28.861 Y32.742 F10800.000
;WIPE_START
G1 F8640.000
G1 X28.837 Y32.655 E-0.03533
G1 X30.206 Y31.696 E-0.38592
G1 X31.535 Y31.076 E-0.33875
;WIPE_END
G1 E-0.04000 F2100.000
G1 Z0.600 F10800.000
G1 X220.046 Y32.471
G1 Z0.200
G1 E0.80000 F2100.000
;TYPE:Solid infill
;WIDTH:0.420287
G1 F1200.000
G1 X221.838 Y34.263 E0.07955
G1 X222.730 Y35.537 E0.04879
G1 X222.863 Y35.822 E0.00985
G1 X219.178 Y32.137 E0.16350
M73 P0 R382
G1 X218.179 Y31.671 E0.03462
G1 X223.329 Y36.821 E0.22856
G1 X223.388 Y36.947 E0.00435
G1 X223.559 Y37.585 E0.02071
G1 X217.415 Y31.441 E0.27260
G1 X216.686 Y31.246 E0.02368
G1 X223.754 Y38.314 E0.31362
G1 X223.790 Y38.450 E0.00443
G1 X223.832 Y38.925 E0.01497
G1 X216.075 Y31.168 E0.34424
G1 X215.490 Y31.117 E0.01842
G1 X223.883 Y39.510 E0.37246
G1 X223.930 Y40.091 E0.01828
G1 X214.909 Y31.070 E0.40031
G1 X214.375 Y31.070 E0.01675
G1 X223.930 Y40.625 E0.42399
G1 X223.930 Y41.158 E0.01675
G1 X213.842 Y31.070 E0.44767
G1 X213.308 Y31.070 E0.01675
G1 X223.930 Y41.692 E0.47136
G1 X223.930 Y42.226 E0.01675
G1 X212.774 Y31.070 E0.49504
G1 X212.241 Y31.070 E0.01675
G1 X223.930 Y42.759 E0.51872
G1 X223.930 Y43.293 E0.01675
G1 X211.707 Y31.070 E0.54240
G1 X211.173 Y31.070 E0.01675
G1 X223.930 Y43.827 E0.56609
G1 X223.930 Y44.360 E0.01675
G1 X210.640 Y31.070 E0.58977
G1 X210.106 Y31.070 E0.01675
G1 X223.930 Y44.894 E0.61345
G1 X223.930 Y45.428 E0.01675
G1 X209.572 Y31.070 E0.63713
G1 X209.039 Y31.070 E0.01675
G1 X223.930 Y45.961 E0.66081
G1 X223.930 Y46.495 E0.01675
G1 X208.505 Y31.070 E0.68450
G1 X207.971 Y31.070 E0.01675
G1 X223.930 Y47.029 E0.70818
G1 X223.930 Y47.562 E0.01675
G1 X207.438 Y31.070 E0.73186
G1 X206.904 Y31.070 E0.01675
G1 X223.930 Y48.096 E0.75554
G1 X223.930 Y48.630 E0.01675
G1 X206.370 Y31.070 E0.77922
G1 X205.837 Y31.070 E0.01675
G1 X223.930 Y49.163 E0.80291
G1 X223.930 Y49.697 E0.01675
G1 X205.303 Y31.070 E0.82659
G1 X204.769 Y31.070 E0.01675
G1 X223.930 Y50.231 E0.85027
G1 X223.930 Y50.764 E0.01675
G1 X204.236 Y31.070 E0.87395
G1 X203.702 Y31.070 E0.01675
G1 X223.930 Y51.298 E0.89764
G1 X223.930 Y51.832 E0.01675
G1 X203.168 Y31.070 E0.92132
G1 X202.635 Y31.070 E0.01675
G1 X223.930 Y52.365 E0.94500
G1 X223.930 Y52.899 E0.01675
G1 X202.101 Y31.070 E0.96868
G1 X201.567 Y31.070 E0.01675
G1 X223.930 Y53.433 E0.99236
G1 X223.930 Y53.966 E0.01675
G1 X201.034 Y31.070 E1.01605
G1 X200.500 Y31.070 E0.01675
G1 X223.930 Y54.500 E1.03973
G1 X223.930 Y55.034 E0.01675
G1 X199.966 Y31.070 E1.06341
M73 Q0 S387
G1 X199.433 Y31.070 E0.01675
G1 X223.930 Y55.567 E1.08709
G1 X223.930 Y56.101 E0.01675
G1 X198.899 Y31.070 E1.11078
G1 X198.365 Y31.070 E0.01675
G1 X223.930 Y56.635 E1.13446
G1 X223.930 Y57.169 E0.01675
G1 X197.831 Y31.070 E1.15814
G1 X197.298 Y31.070 E0.01675
G1 X223.930 Y57.702 E1.18182
G1 X223.930 Y58.236 E0.01675
G1 X196.764 Y31.070 E1.20550
G1 X196.230 Y31.070 E0.01675
G1 X223.930 Y58.770 E1.22919
G1 X223.930 Y59.303 E0.01675
G1 X195.697 Y31.070 E1.25287
G1 X195.163 Y31.070 E0.01675
G1 X223.930 Y59.837 E1.27655
G1 X223.930 Y60.371 E0.01675
G1 X194.629 Y31.070 E1.30023
G1 X194.096 Y31.070 E0.01675
G1 X223.930 Y60.904 E1.32392
G1 X223.930 Y61.438 E0.01675
G1 X193.562 Y31.070 E1.34760
M73 P0 R381
G1 X193.028 Y31.070 E0.01675
G1 X223.930 Y61.972 E1.37128
G1 X223.930 Y62.505 E0.01675
G1 X192.495 Y31.070 E1.39496
G1 X191.961 Y31.070 E0.01675
G1 X223.930 Y63.039 E1.41864
G1 X223.930 Y63.573 E0.01675
G1 X191.427 Y31.070 E1.44233
G1 X190.894 Y31.070 E0.01675
G1 X223.930 Y64.106 E1.46601
G1 X223.930 Y64.640 E0.01675
G1 X190.360 Y31.070 E1.48969
G1 X189.826 Y31.070 E0.01675
G1 X223.930 Y65.174 E1.51337
G1 X223.930 Y65.707 E0.01675
G1 X189.293 Y31.070 E1.53705
G1 X188.759 Y31.070 E0.01675
G1 X223.930 Y66.241 E1.56074
G1 X223.930 Y66.775 E0.01675
G1 X188.225 Y31.070 E1.58442
G1 X187.692 Y31.070 E0.01675
G1 X223.930 Y67.308 E1.60810
G1 X223.930 Y67.842 E0.01675
G1 X187.158 Y31.070 E1.63178
G1 X186.624 Y31.070 E0.01675
G1 X223.930 Y68.376 E1.65547
G1 X223.930 Y68.909 E0.01675
G1 X186.091 Y31.070 E1.67915
G1 X185.557 Y31.070 E0.01675
G1 X223.930 Y69.443 E1.70283
M73 Q0 S386
G1 X223.930 Y69.977 E0.01675
G1 X185.023 Y31.070 E1.72651
G1 X184.490 Y31.070 E0.01675
G1 X223.930 Y70.510 E1.75019
G1 X223.930 Y71.044 E0.01675
G1 X183.956 Y31.070 E1.77388
M73 P1 R381
G1 X183.422 Y31.070 E0.01675
G1 X223.930 Y71.578 E1.79756
M73 Q1 S386
G1 X223.930 Y72.111 E0.01675
G1 X182.888 Y31.070 E1.82124
G1 X182.355 Y31.070 E0.01675
G1 X223.930 Y72.645 E1.84492
G1 X223.930 Y73.179 E0.01675
G1 X181.821 Y31.070 E1.86861
G1 X181.287 Y31.070 E0.01675
G1 X223.930 Y73.713 E1.89229
M73 P1 R380
G1 X223.930 Y74.246 E0.01675
G1 X180.754 Y31.070 E1.91597
G1 X180.220 Y31.070 E0.01675
G1 X223.930 Y74.780 E1.93965
G1 X223.930 Y75.314 E0.01675
G1 X179.686 Y31.070 E1.96333
G1 X179.153 Y31.070 E0.01675
G1 X223.930 Y75.847 E1.98702
G1 X223.930 Y76.381 E0.01675
G1 X178.619 Y31.070 E2.01070
G1 X178.085 Y31.070 E0.01675
G1 X223.930 Y76.915 E2.03438
G1 X223.930 Y77.448 E0.01675
G1 X177.552 Y31.070 E2.05806
G1 X177.018 Y31.070 E0.01675
G1 X223.930 Y77.982 E2.08175
G1 X223.930 Y78.516 E0.01675
G1 X176.484 Y31.070 E2.10543
G1 X175.951 Y31.070 E0.01675
G1 X223.930 Y79.049 E2.12911
G1 X223.930 Y79.583 E0.01675
G1 X175.417 Y31.070 E2.15279
M73 Q1 S385
G1 X174.883 Y31.070 E0.01675
G1 X223.930 Y80.117 E2.17647
G1 X223.930 Y80.650 E0.01675
G1 X174.350 Y31.070 E2.20016
G1 X173.816 Y31.070 E0.01675
G1 X223.930 Y81.184 E2.22384
G1 X223.930 Y81.718 E0.01675
G1 X173.282 Y31.070 E2.24752
G1 X172.749 Y31.070 E0.01675
G1 X223.930 Y82.251 E2.27120
G1 X223.930 Y82.785 E0.01675
G1 X172.215 Y31.070 E2.29488
G1 X171.681 Y31.070 E0.01675
G1 X223.930 Y83.319 E2.31857
M73 P1 R379
G1 X223.930 Y83.852 E0.01675
G1 X171.148 Y31.070 E2.34225
G1 X170.614 Y31.070 E0.01675
G1 X223.930 Y84.386 E2.36593
G1 X223.930 Y84.920 E0.01675
G1 X170.080 Y31.070 E2.38961
G1 X169.547 Y31.070 E0.01675
G1 X223.930 Y85.453 E2.41330
G1 X223.930 Y85.987 E0.01675
G1 X169.013 Y31.070 E2.43698
G1 X168.479 Y31.070 E0.01675
G1 X223.930 Y86.521 E2.46066
G1 X223.930 Y87.054 E0.01675
G1 X167.946 Y31.070 E2.48434
G1 X167.412 Y31.070 E0.01675
G1 X223.930 Y87.588 E2.50802
G1 X223.930 Y88.122 E0.01675
G1 X166.878 Y31.070 E2.53171
M73 Q1 S384
G1 X166.344 Y31.070 E0.01675
G1 X223.930 Y88.656 E2.55539
G1 X223.930 Y89.189 E0.01675
G1 X165.811 Y31.070 E2.57907
G1 X165.277 Y31.070 E0.01675
G1 X223.930 Y89.723 E2.60275
G1 X223.930 Y90.257 E0.01675
G1 X164.743 Y31.070 E2.62644
G1 X164.210 Y31.070 E0.01675
G1 X223.930 Y90.790 E2.65012
G1 X223.930 Y91.324 E0.01675
G1 X163.676 Y31.070 E2.67380
M73 P1 R378
G1 X163.142 Y31.070 E0.01675
G1 X223.930 Y91.858 E2.69748
G1 X223.930 Y92.391 E0.01675
G1 X162.609 Y31.070 E2.72116
G1 X162.075 Y31.070 E0.01675
G1 X223.930 Y92.925 E2.74485
G1 X223.930 Y93.459 E0.01675
G1 X161.541 Y31.070 E2.76853
G1 X161.008 Y31.070 E0.01675
G1 X223.930 Y93.992 E2.79221
G1 X223.930 Y94.526 E0.01675
G1 X160.474 Y31.070 E2.81589
G1 X159.940 Y31.070 E0.01675
G1 X223.930 Y95.060 E2.83958
G1 X223.930 Y95.593 E0.01675
G1 X159.407 Y31.070 E2.86326
M73 Q1 S383
G1 X158.873 Y31.070 E0.01675
G1 X223.930 Y96.127 E2.88694
G1 X223.930 Y96.661 E0.01675
G1 X158.339 Y31.070 E2.91062
G1 X157.806 Y31.070 E0.01675
G1 X223.930 Y97.194 E2.93430
G1 X223.930 Y97.728 E0.01675
G1 X157.272 Y31.070 E2.95799
G1 X156.738 Y31.070 E0.01675
G1 X223.930 Y98.262 E2.98167
M73 P1 R377
G1 X223.930 Y98.795 E0.01675
G1 X156.205 Y31.070 E3.00535
G1 X155.671 Y31.070 E0.01675
G1 X223.930 Y99.329 E3.02903
G1 X223.930 Y99.863 E0.01675
G1 X155.137 Y31.070 E3.05271
G1 X154.604 Y31.070 E0.01675
G1 X223.930 Y100.396 E3.07640
G1 X223.930 Y100.930 E0.01675
G1 X154.070 Y31.070 E3.10008
G1 X153.536 Y31.070 E0.01675
G1 X223.930 Y101.464 E3.12376
G1 X223.930 Y101.997 E0.01675
G1 X153.003 Y31.070 E3.14744
M73 P2 R377
M73 Q1 S382
G1 X152.469 Y31.070 E0.01675
G1 X223.930 Y102.531 E3.17113
G1 X223.930 Y103.065 E0.01675
G1 X151.935 Y31.070 E3.19481
M73 Q2 S382
G1 X151.402 Y31.070 E0.01675
G1 X223.930 Y103.598 E3.21849
G1 X223.930 Y104.132 E0.01675
G1 X150.868 Y31.070 E3.24217
G1 X150.334 Y31.070 E0.01675
G1 X223.930 Y104.666 E3.26585
M73 P2 R376
G1 X223.930 Y105.200 E0.01675
G1 X149.800 Y31.070 E3.28954
G1 X149.267 Y31.070 E0.01675
G1 X223.930 Y105.733 E3.31322
G1 X223.930 Y106.267 E0.01675
G1 X148.733 Y31.070 E3.33690
G1 X148.199 Y31.070 E0.01675
G1 X223.930 Y106.801 E3.36058
G1 X223.930 Y107.334 E0.01675
G1 X147.666 Y31.070 E3.38427
G1 X147.132 Y31.070 E0.01675
G1 X223.930 Y107.868 E3.40795
G1 X223.930 Y108.402 E0.01675
G1 X146.598 Y31.070 E3.43163
M73 Q2 S381
G1 X146.065 Y31.070 E0.01675
G1 X223.930 Y108.935 E3.45531
G1 X223.930 Y109.469 E0.01675
G1 X145.531 Y31.070 E3.47899
G1 X144.997 Y31.070 E0.01675
G1 X223.930 Y110.003 E3.50268
G1 X223.930 Y110.536 E0.01675
G1 X144.464 Y31.070 E3.52636
M73 P2 R375
G1 X143.930 Y31.070 E0.01675
G1 X223.930 Y111.070 E3.55004
G1 X223.930 Y111.604 E0.01675
G1 X143.396 Y31.070 E3.57372
G1 X142.863 Y31.070 E0.01675
G1 X223.930 Y112.137 E3.59741
G1 X223.930 Y112.671 E0.01675
G1 X142.329 Y31.070 E3.62109
G1 X141.795 Y31.070 E0.01675
G1 X223.930 Y113.205 E3.64477
G1 X223.930 Y113.738 E0.01675
G1 X141.262 Y31.070 E3.66845
M73 Q2 S380
G1 X140.728 Y31.070 E0.01675
G1 X223.930 Y114.272 E3.69213
G1 X223.930 Y114.806 E0.01675
G1 X140.194 Y31.070 E3.71582
G1 X139.661 Y31.070 E0.01675
G1 X223.930 Y115.339 E3.73950
G1 X223.930 Y115.873 E0.01675
G1 X139.127 Y31.070 E3.76318
M73 P2 R374
G1 X138.593 Y31.070 E0.01675
G1 X223.930 Y116.407 E3.78686
G1 X223.930 Y116.940 E0.01675
G1 X138.060 Y31.070 E3.81054
G1 X137.526 Y31.070 E0.01675
G1 X223.930 Y117.474 E3.83423
G1 X223.930 Y118.008 E0.01675
G1 X136.992 Y31.070 E3.85791
G1 X136.459 Y31.070 E0.01675
G1 X223.930 Y118.541 E3.88159
G1 X223.930 Y119.075 E0.01675
G1 X135.925 Y31.070 E3.90527
M73 Q2 S379
G1 X135.391 Y31.070 E0.01675
G1 X223.930 Y119.609 E3.92896
G1 X223.930 Y120.142 E0.01675
G1 X134.858 Y31.070 E3.95264
G1 X134.324 Y31.070 E0.01675
G1 X223.930 Y120.676 E3.97632
G1 X223.930 Y121.210 E0.01675
G1 X133.790 Y31.070 E4.00000
M73 P2 R373
G1 X133.256 Y31.070 E0.01675
G1 X223.930 Y121.744 E4.02368
G1 X223.930 Y122.277 E0.01675
G1 X132.723 Y31.070 E4.04737
G1 X132.189 Y31.070 E0.01675
G1 X223.930 Y122.811 E4.07105
G1 X223.930 Y123.345 E0.01675
G1 X131.655 Y31.070 E4.09473
M73 P3 R373
G1 X131.122 Y31.070 E0.01675
G1 X223.930 Y123.878 E4.11841
